public/images/icons/flying/crypto/handshake.svg

<?xml version="1.0" encoding="utf-8"?>
<!-- Generator: Adobe Illustrator 24.0.0, SVG Export Plug-In . SVG Version: 6.00 Build 0)  -->
<svg version="1.1" id="Layer_1" xmlns="http://www.w3.org/2000/svg" xmlns:xlink="http://www.w3.org/1999/xlink" x="0px" y="0px"
	 viewBox="0 0 2000 2088.9" style="enable-background:new 0 0 2000 2088.9;" xml:space="preserve">
<style type="text/css">
	.st0{fill-rule:evenodd;clip-rule:evenodd;}
</style>
<path class="st0" d="M1726.6,681.4l-129.8-230.6l251.5,0.1c6.7,0,14.6,4.5,18.2,10.5c4,6.6,24.4,40.3,49,80.7
	c29.4,48.4,64.5,106.3,84.6,139.3H1726.6z M1261.4,2078c-6.1,10.9-14,10.9-16.6,10.9h-102.8c-54.4,0-117.1-0.1-154.5-0.1
	l399.6-717.4c10.4-18.5,3.7-42-14.8-52.3c-5.7-3.2-12.1-4.9-18.6-4.9l0,0l-681,0.9l-135.5-234.5h992c0.1,0,0.2,0,0.3,0s0.2,0,0.3,0
	c0.6,0,1.1-0.2,1.6-0.2c2.2-0.1,4.4-0.4,6.6-0.9c1.6-0.4,3.3-0.9,4.8-1.5c0.8-0.3,1.7-0.7,2.5-1c7.7-3.3,14.1-9.1,18.2-16.5
	L1727,758.2h270L1261.4,2078z M921.1,2050.7c-8.7-14.3-20-32.9-32.3-53.1c-41.3-68.2-94.2-155.5-100.2-165.1
	c-2-3.2-2.9-11.1,1.3-18.7c9.6-17.2,190.4-343,234.5-422.4l264.1-0.3L921.1,2050.7z M470.8,1601.8l-131.3-233.2l132.3-248
	l132.7,229.7C563.3,1428,498.9,1549.1,470.8,1601.8z M294.6,1638.1c-66.8,0-133.3,0-143,0l0,0c-6.5,0-14.4-4.6-18-10.5l-42.7-70.4
	C60.4,1507,21.5,1442.9,0,1407.5h273.4l129.8,230.6C374.9,1638.1,334.8,1638.1,294.6,1638.1L294.6,1638.1z M738.6,11
	c6.1-11,14-11,16.5-11h258.3L612.7,717.4c-0.3,0.6-0.5,1.2-0.8,1.9c-0.6,1.2-1.1,2.4-1.6,3.7c-0.4,1.2-0.8,2.4-1.1,3.7
	s-0.6,2.3-0.8,3.5c-0.2,1.4-0.4,2.8-0.4,4.3c0,0.6-0.2,1.2-0.2,1.9c0,0.5,0.1,0.9,0.2,1.4c0,1.4,0.2,2.8,0.4,4.2
	c0.1,1.2,0.3,2.3,0.6,3.5c0.3,1.2,0.7,2.4,1.1,3.6c0.4,1.2,0.8,2.3,1.3,3.5s1.1,2.2,1.7,3.2s1.2,2.1,2,3.1c0.7,1,1.5,2,2.4,2.9
	c0.8,0.9,1.6,1.8,2.5,2.7s1.8,1.5,2.8,2.3c1.1,0.8,2.2,1.6,3.3,2.3c0.4,0.3,0.8,0.6,1.2,0.9s0.9,0.3,1.4,0.6c2,1,4.1,1.9,6.2,2.5
	c0.8,0.2,1.5,0.5,2.3,0.7c2.8,0.7,5.7,1.1,8.7,1.1c0,0,0,0,0.1,0h0.1h17c0.1,0,0.2,0,0.2,0l0,0l663.9-0.9
	c17.6,30.5,50.4,88,78.3,136.9c21.4,37.6,39.2,68.6,53.2,93h-988c-0.4,0-0.8,0.1-1.3,0.2c-13.9,0.1-26.6,7.9-33.2,20.1l-163.6,306.6
	H3.1C120.8,1119.3,730.7,25,738.6,11z M1079.4,39.1l24,39.5c42.1,69.5,101.6,167.6,107.9,177.8c2,3.2,2.9,11.1-1.3,18.7L975.6,697.3
	l-264,0.3L1079.4,39.1z M1529.1,486.9l131.3,233.3l-133.9,247.5c-16-27.8-35.8-62.6-54.4-95.2c-36.8-64.4-63.6-111.3-78.7-137.5
	C1422.1,682.8,1497.5,544.5,1529.1,486.9z"/>
</svg>

<svg width="2000" height="2089" viewBox="0 0 2000 2089" fill="none" xmlns="http://www.w3.org/2000/svg">
<g clip-path="url(#clip0_1_65)">
<path fill-rule="evenodd" clip-rule="evenodd" d="M1726.6 681.4L1596.8 450.8L1848.3 450.9C1855 450.9 1862.9 455.4 1866.5 461.4C1870.5 468 1890.9 501.7 1915.5 542.1C1944.9 590.5 1980 648.4 2000.1 681.4H1726.6ZM1261.4 2078C1255.3 2088.9 1247.4 2088.9 1244.8 2088.9H1142C1087.6 2088.9 1024.9 2088.8 987.5 2088.8L1387.1 1371.4C1397.5 1352.9 1390.8 1329.4 1372.3 1319.1C1366.6 1315.9 1360.2 1314.2 1353.7 1314.2L672.7 1315.1L537.2 1080.6H1529.2C1529.3 1080.6 1529.4 1080.6 1529.5 1080.6C1529.6 1080.6 1529.7 1080.6 1529.8 1080.6C1530.4 1080.6 1530.9 1080.4 1531.4 1080.4C1533.6 1080.3 1535.8 1080 1538 1079.5C1539.6 1079.1 1541.3 1078.6 1542.8 1078C1543.6 1077.7 1544.5 1077.3 1545.3 1077C1553 1073.7 1559.4 1067.9 1563.5 1060.5L1727 758.2H1997L1261.4 2078ZM921.1 2050.7C912.4 2036.4 901.1 2017.8 888.8 1997.6C847.5 1929.4 794.6 1842.1 788.6 1832.5C786.6 1829.3 785.7 1821.4 789.9 1813.8C799.5 1796.6 980.3 1470.8 1024.4 1391.4L1288.5 1391.1L921.1 2050.7ZM470.8 1601.8L339.5 1368.6L471.8 1120.6L604.5 1350.3C563.3 1428 498.9 1549.1 470.8 1601.8ZM294.6 1638.1C227.8 1638.1 161.3 1638.1 151.6 1638.1C145.1 1638.1 137.2 1633.5 133.6 1627.6L90.9 1557.2C60.4 1507 21.5 1442.9 0 1407.5H273.4L403.2 1638.1C374.9 1638.1 334.8 1638.1 294.6 1638.1ZM738.6 11C744.7 0 752.6 0 755.1 0H1013.4L612.7 717.4C612.4 718 612.2 718.6 611.9 719.3C611.3 720.5 610.8 721.7 610.3 723C609.9 724.2 609.5 725.4 609.2 726.7C608.9 728 608.6 729 608.4 730.2C608.2 731.6 608 733 608 734.5C608 735.1 607.8 735.7 607.8 736.4C607.8 736.9 607.9 737.3 608 737.8C608 739.2 608.2 740.6 608.4 742C608.5 743.2 608.7 744.3 609 745.5C609.3 746.7 609.7 747.9 610.1 749.1C610.5 750.3 610.9 751.4 611.4 752.6C611.9 753.8 612.5 754.8 613.1 755.8C613.7 756.8 614.3 757.9 615.1 758.9C615.8 759.9 616.6 760.9 617.5 761.8C618.3 762.7 619.1 763.6 620 764.5C620.9 765.4 621.8 766 622.8 766.8C623.9 767.6 625 768.4 626.1 769.1C626.5 769.4 626.9 769.7 627.3 770C627.7 770.3 628.2 770.3 628.7 770.6C630.7 771.6 632.8 772.5 634.9 773.1C635.7 773.3 636.4 773.6 637.2 773.8C640 774.5 642.9 774.9 645.9 774.9C645.9 774.9 645.9 774.9 646 774.9H646.1H663.1C663.2 774.9 663.3 774.9 663.3 774.9L1327.2 774C1344.8 804.5 1377.6 862 1405.5 910.9C1426.9 948.5 1444.7 979.5 1458.7 1003.9H470.7C470.3 1003.9 469.9 1004 469.4 1004.1C455.5 1004.2 442.8 1012 436.2 1024.2L272.6 1330.8H3.1C120.8 1119.3 730.7 25 738.6 11ZM1079.4 39.1L1103.4 78.6C1145.5 148.1 1205 246.2 1211.3 256.4C1213.3 259.6 1214.2 267.5 1210 275.1L975.6 697.3L711.6 697.6L1079.4 39.1ZM1529.1 486.9L1660.4 720.2L1526.5 967.7C1510.5 939.9 1490.7 905.1 1472.1 872.5C1435.3 808.1 1408.5 761.2 1393.4 735C1422.1 682.8 1497.5 544.5 1529.1 486.9Z" fill="black"/>
</g>
<defs>
<clipPath id="clip0_1_65">
<rect width="2000" height="2088.9" fill="white"/>
</clipPath>
</defs>
</svg>
